X:1
T:Silver Wedding Waltz [2]
N:Transcribed by Frank Maloy from the playing of Joe Pancerzewski
M:3/4
L:1/8
B:Stephen F. Davis - Devil's Box, vol. 30, No. 1, Spring 1996 (p. 32)
Z:AK/Fiddler's Companion
K:G
d ^cd||"G"bf ag Be|d2 B3G|B,4 C2|D4 ^CD|G3 F GB|d3^c (3ded|
"D7"F4 =F2|^F3 d ^cd|c'^g ba ga|f2 A3B|d2c3A|E4-E C|
DE FG AB|AF EF DE|"G"B,6|B,3d ^cd|bf ag Be|d2 B3G|B,4C2|
D4 ^CD|G3A Bd|g2f2=f2|"C"e3 ^d e=d|c6|e3 ^d ef|(3gag (3fgf (3efe|
"G"d3e (3ded|"E7"B3 d ^cd|"Am"fe dB cd|"D7"B3 D FA|"G"G6|"G7"G2E2=F2||
K:C
"C"G4e2|"G7"F4d2|"C"c6|c4 EG|c3 B c^c|d4 c2|
"G7"B6-|B2 D2E2|F4d2|d2^c2=c2|B3 ^A Bc|B4 DD|
F2G2A2|c2B3A|"C"E6-|E2 {EF}ED EF|G4e2|"G7"F4d2|"C"c6|
c4 EG|c3 c Bc|"C7"a3 g eg|"F"f6-|f2 A2B2|c4 Bc|d4 cd|
"C"ef ag bg|"A7"(3aba g3e|"Dm"fe dc BA|"G7"G2e2d2|"C"c4 "C#7"^c2|"D7"d3 d ^cd||
K:G
"G"bf ag Be|d2 B3G|B,4C2|D4 ^CD|G3 F GB|d3^c (3ded|
"D7"F4=F2|F3d ^cd|c'^g ba ga|f2 A3B|d2 c3A|E4-E C|
DE FG AB|AF EF DE|"G"B,6|B,3 d ^cd|bf ag Be|d2 B3 G|
B,4C2 |D4 ^CD|G3A Bd|g2f2 =f2|"C"e3^d e=d|c6|e3^d ef|
(3gag (3fgf (3efe|"G"d3e (3ded|"E7"B3d ^cd|"Am"fe dB cd|"D7"B3 D FA|"G"G2D2B,2|[G,3D3]||

